X:1
T:Cruda mia Tiranella
T:Cruda mia Tiranella
T:anonymus
C:anonymus
%%score [ 1 2 3 4 ]
L:1/8
Q:1/4=120
M:2/2
K:C
V:1 treble nm="Soprano" snm="S"
V:2 treble nm="Alto" snm="A"
V:3 treble-8 nm="Tenor" snm="T"
V:4 bass nm="Bass" snm="B"
V:1
 z8 | z8 | z4 c4 | _B2 A2 G2 F2 | _B4 A4- | A8 :| A2 B2 c2 cc | c2 B3 B G2 | A4 B4 |: z4 GFGA | %10
w: ||Cru-|da mia Ti- ra-|niel- la.||Quan- do suc- chio quei|tuoi dol- ci co-|ral- li,|trie- * * *|
w: ||Dol-|ce mia paz- za-|rel- la,||quan- do strin- go que|tuoi bian- chi cri-|stal- li,|trie * * *|
w: ||O|mi- se- ro scon-|tien- to||che le la- bra, le|man, l'a- mi- co|piet- to,|le _ _ _|
 G4 G4 | z4 cBcd | c2 cc e2 d2 | d4 d4 |[M:3/4] z6 | c4 d2 | c4 c2 | B2 B2 A2 | G2 G4 | %19
w: * mo,|trie- * * *|* mo com' un gri-|das- se,||Dal- li,|dal- li,|dal- li, dal-|li, dal-|
w: * mo|trie- * * *|* mo com' un gri-|das- se,||||||
w: _ gran|quest' * * *|al- ma af- flit- ta|stret- to,||||||
[M:2/2] G8 |] %20
w: li.|
w: |
w: |
V:2
 z4 c4 | _B2 A2 G2 F2 | _B4 A2 A2 | d2 c2 _B2 A2 | G3 F E4 | D8 :| F2 G2 A2 AA | A2 G3 G G2- | %8
w: Cru-|da mia Ti- ra-|niel- la, cru-|da mia Ti- ra-|niel- * *|la.|Quan- do suc- chio quei|tuoi dol- ci co-|
w: Dol-|ce mia paz- za-|rel- la, dol-|ce mia pa- za-|rel- * *|la,|quan- do strin- go que|tuoi bian- chi cri-|
w: O|mi- se- ro scon-|tien- to, O|mi- se- ro scon-|tien- * *|to,|che le la- bra, le|man, l'a- mi- co|
 G2 ^F2 G4 |: EDEF E4 | E4 z4 | GFGA G4 | G2 G2 c2 B2 | A4 B4 |[M:3/4] z6 | G2 A2 G2 | F2 E2 F2 | %17
w: * ral- li,|trie- * * * *|mo|trie- * * * *|mo com' un gri-|das- se,||dal- li, dal-|li, dal- li,|
w: * stal- li,|trie- * * * *|mo|trie- * * * *|mo com' un gri-|das- se,||||
w: * piet- te,|le * * * *|gran|quest' _ _ _ al-|ma af- flit- ta|stret- to,||||
 G2 G2 F2 | E2 D4 |[M:2/2] E8 |] %20
w: dal- li, dal-|li, dal-|li.|
w: |||
w: |||
V:3
 z4 e4 | f2 e2 de f2- | f2 e2 f4 | z2 e2 d2 c2 | e2 d4 ^c2 | d8 :| d2 e2 f2 ff | f2 e3 e B2 | %8
w: Cru-|da mia Ti- ra- niel-|* * la,|cru- da mia|Ti- ra- niel-|la.|Quan- do suc- chi quei|tuoi dol- ci co-|
w: Dol-|ce mia paz- za- rel-|* * la,|dol- ce mia|paz- za rel-|la,|quan- do strin- go que|tuoi bian- chi cri-|
w: O|mi- se- ro scon- tien-|* * to,|O mi- se-|ro scon- tien-|to,|che le la- bra, le|man, l'a- mi- co|
 ^c2 d2 G4 |: z8 | z4 edef | e4 e2 e2 | e3 f g2 g2 | ^f4 g4 |[M:3/4] e4 f2 | e4 B2 | c4 c2 | %17
w: ral * li,||trie- * * *|* mo com'|un _ _ gri-|das- se,|dal- li,|dal- li,|dal- li,|
w: stal- * li,||trie- * * *|* o com'|un _ _ gri-|das- se,||||
w: piet- * to,||le _ _ _|_ gran quest'|al- m'af- flit- ta|stret- to,||||
 d2 e2 c2 | c2 B4 |[M:2/2] c8 |] %20
w: dal- li, dal,-|li, dal,|li.|
w: |||
w: |||
V:4
 A,8 | D2 C2 _B,2 A,2 | G,4 F,4 | z2 A,2 _B,2 F,2 | G,2 G,2 A,4 | D,8 :| z8 | z8 | z8 |: CB,CD C4 | %10
w: Cru-|da mia Ti- ra-|niel- la,|cru- da mia|Ti- ra- niel-|la.||||Trie- * * * *|
w: Dol-|ce mia paz- za-|rel- la,|dol- ce mia|paz- za- rel-|la,||||Trie * * * *|
w: O|mi- se- ro scon-|tien- to,|O mi- se-|ro scon- tien-|to,||||Le _ _ _ _|
 C4 C,B,,C,D, | C,4 C,2 C,2 | C6 G,2 | D4 G,4 |[M:3/4] C4 D2 | C4 G,2 | A,4 A,2 | G,2 E,2 F,2 | %18
w: mo, trie- * * *|* mo com'|un gri-|das- se,|da- li,|dal- li,|dal- li,|dal- li, dal-|
w: mo, trie- * * *|* mo com'|un gri-|das- se,|||||
w: gran quest _ _ _|_ al- m'af-|flit- ta|stret- to,|||||
 C,2 G,4 |[M:2/2] C,8 |] %20
w: li, dal-|li.|
w: ||
w: ||

